X:1
T:[ID 2-22b]
T:[ID 2-22b]
T:Bezeichnung standardisiert: Menuett Menuet
T:Urheber unbekannt Datum in der hier transkribierten schriftlichen Quelle: 1767
C:Urheber unbekannt
C:Datum in der hier transkribierten schriftlichen Quelle: 1767
L:1/8
M:3/4
K:F
V:1 treble 
V:1
 c4 AF | G2 B2 A2 | C2 B2 A2 |{A} G4 F2 | g4 ec | a4 fd | (3efg d2 ^B2 | c6 :: c2 _e2 e2 | _e4 d2 | %10
 d2 f2 f2 | f=e e4 | c2 b2 a2 | g2 fe fc | (3dcB A2 BG | F6 :| %16

